X:1
T:Title
%%score { ( 1 3 ) | ( 2 4 ) }
L:1/8
M:4/4
K:G
V:1 treble nm="Grand Piano"
V:3 treble 
V:2 bass 
V:4 bass 
V:1
 z4 z2[Q:1/4=100] B>A | G2 E2 D2 F>A | [B,DG]6 [B,G]>[CGA] | [DGB]3 [DGB] [DAc]2 [DGB]2 | %4
[M:3/4] [DFA]6 |[M:1/4] [DB]>[CDA] |[M:4/4] [B,DG]2 [G,CE]2 [G,B,D]2 [A,DF]>[CDA] | %7
 [B,DG]6 [DGB]>[DGB] | [DFA]3 [EG] [A,DF]2 [G,^CE]2 |[M:3/4] D4- [Dc]2 |[M:1/4] B>G | %11
[M:4/4] d6 z2 | G6 z2 | [DGB]3 [DGB] [DAc]2 [DGB]>[DGB] |[M:3/4] [DFA]6 |[M:1/4] z2 | %16
[M:4/4] z2 [A,F]>[A,F] [A,F]2 z2 | z2 [B,D]>[CE] [B,D]2 [B,D]>[B,D] | %18
 [CE]2 [Ec]2 [DB]2 [A,DF]>[CDA] |[M:3/4] [B,DG]6 |] %20
V:2
 z4 z2 [G,D]>[G,CD] | [G,B,D]2 [C,G,C]2 [D,G,B,]2 [D,A,D]>[D,CD] | G,,6 G,>G, | G,3 G, F,2 G,2 | %4
[M:3/4] D,6 |[M:1/4] D,>D, |[M:4/4] G,,2 C,2 D,2 D,>D, | G,,6 G,>G, | A,3 A, A,,2 A,,2 | %9
[M:3/4] z2 z2 A,2 |[M:1/4] z2 |[M:4/4] z2 [D,A,]>[D,A,] [D,A,]2 z2 | z2 G,,>G,, G,,2 G,>G, | %13
 G,3 G, F,2 G,>G, |[M:3/4] D,6 |[M:1/4][K:treble] G>B |[M:4/4] d6[K:bass][K:treble] z2 | %17
 G6[K:bass] z2 | [C,G,]2 [C,G,]2 [D,G,]2 D,>D, |[M:3/4] G,,6 |] %20
V:3
 x8 | x8 | x8 | x8 |[M:3/4] x6 |[M:1/4] x2 |[M:4/4] x8 | x8 | x8 |[M:3/4] F,4 z2 |[M:1/4] x2 | %11
[M:4/4] z2 F>F F2 F>A | z2 [B,D]>[CE] [B,D]2 [B,G]>[CGA] | x8 |[M:3/4] x6 |[M:1/4] x2 |[M:4/4] x8 | %17
 x8 | x8 |[M:3/4] x6 |] %20
V:4
 x8 | x8 | x8 | x8 |[M:3/4] x6 |[M:1/4] x2 |[M:4/4] x8 | x8 | x8 |[M:3/4] D,6 |[M:1/4] x2 | %11
[M:4/4] x8 | x8 | x8 |[M:3/4] x6 |[M:1/4][K:treble] x2 | %16
[M:4/4] z2[K:bass] D,>D, D,2[K:treble] F>A | z2[K:bass] G,,>G,, G,,2 [G,,G,]>[G,,G,] | x8 | %19
[M:3/4] x6 |] %20

